src/components/Icon/assets/history.svg

<svg width="24" height="24" viewBox="0 0 24 24" fill="none" xmlns="http://www.w3.org/2000/svg">
<g id="history">
<path id="Combined Shape" fill-rule="evenodd" clip-rule="evenodd" d="M6.38534 6.30089C7.8731 4.83583 9.86958 3.9998 11.9999 3.9998C16.4176 3.9998 19.9999 7.58209 19.9999 11.9998C19.9999 16.4182 16.418 19.9998 11.9999 19.9998C7.5818 19.9998 3.99988 16.4182 3.99988 11.9998H1.99988C1.99988 17.5228 6.47726 21.9998 11.9999 21.9998C17.5225 21.9998 21.9999 17.5228 21.9999 11.9998C21.9999 6.47752 17.5222 1.9998 11.9999 1.9998C9.3336 1.9998 6.83033 3.05027 4.97122 4.88652L2.85418 2.7691C2.53918 2.4551 2.00018 2.6771 2.00018 3.1231V8.7501C2.00018 9.0261 2.22418 9.2501 2.50018 9.2501H8.12718C8.57218 9.2501 8.79518 8.7111 8.48018 8.3961L6.38534 6.30089ZM13.0002 6.00011H11.0002V12.5385L15.6184 14.9032L16.5299 13.123L13.0002 11.3157V6.00011Z" fill="#242428"/>
</g>
</svg>

<svg xmlns="http://www.w3.org/2000/svg" width="24" height="24" fill="none" viewBox="0 0 24 24">
    <path fill="#65676A" fill-rule="evenodd" d="M6.385 6.3C7.873 4.837 9.87 4 12 4c4.418 0 8 3.582 8 8s-3.582 8-8 8-8-3.582-8-8H2c0 5.523 4.477 10 10 10s10-4.477 10-10c0-5.522-4.478-10-10-10C9.334 2 6.83 3.05 4.97 4.887L2.854 2.769C2.54 2.455 2 2.677 2 3.123V8.75c0 .276.224.5.5.5h5.627c.445 0 .668-.539.353-.854L6.385 6.301zM13 6h-2v6.539l4.618 2.364.912-1.78L13 11.316V6z" clip-rule="evenodd"/>
</svg>
